; generated by PrusaSlicer 2.0.0 on 2020-04-19 at 19:22:48

; 

; external perimeters extrusion width = 0.45mm
; perimeters extrusion width = 0.45mm
; infill extrusion width = 0.45mm
; solid infill extrusion width = 0.45mm
; top infill extrusion width = 0.40mm
; first layer extrusion width = 0.42mm

M73 P0 R40
M73 Q0 S40
M201 X1000 Y1000 Z1000 E5000 ; sets maximum accelerations, mm/sec^2
M203 X200 Y200 Z12 E120 ; sets maximum feedrates, mm/sec
M204 P1250 R1250 T1250 ; sets acceleration (P, T) and retract acceleration (R), mm/sec^2
M205 X8.00 Y8.00 Z0.40 E1.50 ; sets the jerk limits, mm/sec
M205 S0 T0 ; sets the minimum extruding and travel feed rate, mm/sec
M107
M115 U3.7.1 ; tell printer latest fw version
G90 ; use absolute coordinates
M83 ; extruder relative mode
M104 S215 ; set extruder temp
M140 S60 ; set bed temp
M190 S60 ; wait for bed temp
M109 S215 ; wait for extruder temp
G28 W ; home all without mesh bed level
G80 ; mesh bed leveling
G1 Y-3.0 F1000.0 ; go outside print area
G92 E0.0
G1 X60.0 E9.0 F1000.0 ; intro line
M73 Q0 S40
M73 P0 R40
G1 X100.0 E12.5 F1000.0 ; intro line
G92 E0.0
M221 S95
M900 K30 ; Filament gcode
G21 ; set units to millimeters
G90 ; use absolute coordinates
M83 ; use relative distances for extrusion
;BEFORE_LAYER_CHANGE
G92 E0.0
;0.2


G1 E-0.80000 F2100.00000
G1 Z0.600 F10800.000
;AFTER_LAYER_CHANGE
;0.2
G1 X94.751 Y76.055
G1 Z0.200
G1 E0.80000 F2100.00000
M204 S1000
G1 F1200
G1 X96.097 Y74.717 E0.05950
G1 X96.820 Y74.173 E0.02838
G1 X98.201 Y73.376 E0.04999
G1 X99.956 Y72.725 E0.05870
G1 X101.761 Y72.410 E0.05745
G1 X147.389 Y72.374 E1.43063
G1 X149.167 Y72.530 E0.05595
G1 X150.898 Y72.995 E0.05620
G1 X152.515 Y73.751 E0.05597
G1 X154.034 Y74.827 E0.05836
G1 X155.242 Y76.046 E0.05379
G1 X156.300 Y77.578 E0.05839
G1 X156.974 Y79.023 E0.04999
G1 X157.250 Y79.872 E0.02801
G1 X157.578 Y81.634 E0.05619
G1 X157.593 Y128.187 E1.45962
G1 X157.452 Y129.258 E0.03387
G1 X156.980 Y130.963 E0.05547
G1 X156.251 Y132.512 E0.05368
G1 X155.249 Y133.945 E0.05483
G1 X153.897 Y135.287 E0.05973
G1 X152.581 Y136.208 E0.05036
G1 X151.720 Y136.663 E0.03053
G1 X149.948 Y137.299 E0.05904
G1 X148.370 Y137.577 E0.05025
G1 X147.434 Y137.625 E0.02938
G1 X101.810 Y137.593 E1.43051
G1 X100.742 Y137.452 E0.03376
G1 X99.034 Y136.978 E0.05559
G1 X97.491 Y136.252 E0.05345
G1 X96.055 Y135.249 E0.05494
G1 X94.713 Y133.897 E0.05973
G1 X93.792 Y132.581 E0.05036
G1 X93.337 Y131.720 E0.03053
G1 X92.701 Y129.948 E0.05904
G1 X92.423 Y128.370 E0.05025
G1 X92.375 Y127.434 E0.02938
G1 X92.407 Y81.813 E1.43039
G1 X92.548 Y80.742 E0.03387
G1 X93.020 Y79.037 E0.05547
G1 X93.749 Y77.488 E0.05368
G1 X94.717 Y76.104 E0.05294
G1 F8640
G1 X96.097 Y74.717 E-0.45182
G1 X96.820 Y74.173 E-0.20899
G1 X97.192 Y73.958 E-0.09919
G1 E-0.04000 F2100.00000
G1 Z0.800 F10800.000
G1 X119.976 Y99.976
G1 Z0.200
G1 E0.80000 F2100.00000
G1 F1200
G1 X120.433 Y99.557 E0.01944
G1 X120.924 Y99.179 E0.01944
G1 X121.447 Y98.846 E0.01944
G1 X121.997 Y98.560 E0.01944
G1 X122.570 Y98.323 E0.01944
G1 X123.161 Y98.136 E0.01944
G1 X123.766 Y98.002 E0.01944
G1 X124.381 Y97.921 E0.01944
G1 X125.000 Y97.894 E0.01944
G1 X125.619 Y97.921 E0.01944
G1 X126.234 Y98.002 E0.01944
G1 X126.839 Y98.136 E0.01944
G1 X127.430 Y98.323 E0.01944
G1 X128.003 Y98.560 E0.01944
G1 X128.553 Y98.846 E0.01944
G1 X129.076 Y99.179 E0.01944
G1 X129.567 Y99.557 E0.01944
G1 X130.024 Y99.976 E0.01944
G1 X130.443 Y100.433 E0.01944
G1 X130.821 Y100.924 E0.01944
G1 X130.945 Y101.120 E0.00726
G1 X131.154 Y101.447 E0.01217
G1 X131.440 Y101.997 E0.01944
G1 X131.677 Y102.570 E0.01944
G1 X131.864 Y103.161 E0.01944
G1 X131.998 Y103.766 E0.01944
G1 X132.079 Y104.381 E0.01944
G1 X132.106 Y105.000 E0.01944
G1 X132.079 Y105.619 E0.01944
G1 X131.998 Y106.234 E0.01944
G1 X131.864 Y106.839 E0.01944
G1 X131.677 Y107.430 E0.01944
G1 X131.440 Y108.003 E0.01944
G1 X131.154 Y108.553 E0.01944
G1 X130.945 Y108.880 E0.01217
G1 X130.821 Y109.076 E0.00726
G1 X130.443 Y109.567 E0.01944
G1 X130.024 Y110.024 E0.01944
G1 X129.567 Y110.443 E0.01944
G1 X129.076 Y110.821 E0.01944
G1 X128.553 Y111.154 E0.01944
G1 X128.003 Y111.440 E0.01944
G1 X127.430 Y111.677 E0.01944
G1 X126.839 Y111.864 E0.01944
G1 X126.234 Y111.998 E0.01944
G1 X125.619 Y112.079 E0.01944
G1 X125.000 Y112.106 E0.01944
G1 X124.381 Y112.079 E0.01944
G1 X123.766 Y111.998 E0.01944
G1 X123.161 Y111.864 E0.01944
G1 X122.570 Y111.677 E0.01944
G1 X122.211 Y111.529 E0.01217
G1 X121.997 Y111.440 E0.00726
G1 X121.447 Y111.154 E0.01944
G1 X120.924 Y110.821 E0.01944
G1 X120.433 Y110.443 E0.01944
G1 X119.976 Y110.024 E0.01944
G1 X119.557 Y109.567 E0.01944
G1 X119.179 Y109.076 E0.01944
G1 X119.055 Y108.880 E0.00726
G1 X118.846 Y108.553 E0.01217
G1 X118.560 Y108.003 E0.01944
G1 X118.323 Y107.430 E0.01944
G1 X118.136 Y106.839 E0.01944
G1 X118.002 Y106.234 E0.01944
G1 X117.921 Y105.619 E0.01944
G1 X117.894 Y105.000 E0.01944
G1 X117.921 Y104.381 E0.01944
G1 X118.002 Y103.766 E0.01944
G1 X118.136 Y103.161 E0.01944
G1 X118.323 Y102.570 E0.01944
G1 X118.560 Y101.997 E0.01944
G1 X118.846 Y101.447 E0.01944
G1 X119.179 Y100.924 E0.01944
G1 X119.557 Y100.433 E0.01944
G1 X119.935 Y100.020 E0.01755
G1 X119.657 Y99.765 F10800.000
G1 F1200
G1 X120.190 Y99.268 E0.02286
G1 X120.708 Y98.870 E0.02047
G1 X121.258 Y98.519 E0.02047
G1 X121.837 Y98.218 E0.02047
G1 X122.441 Y97.968 E0.02047
G1 X123.063 Y97.772 E0.02047
G1 X123.701 Y97.631 E0.02047
G1 X124.348 Y97.545 E0.02047
G1 X125.000 Y97.517 E0.02047
G1 X125.652 Y97.545 E0.02047
G1 X126.299 Y97.631 E0.02047
G1 X126.937 Y97.772 E0.02047
G1 X127.559 Y97.968 E0.02047
G1 X128.163 Y98.218 E0.02047
G1 X128.742 Y98.519 E0.02047
G1 X129.292 Y98.870 E0.02047
G1 X129.810 Y99.268 E0.02047
G1 X130.291 Y99.709 E0.02047
G1 X130.732 Y100.190 E0.02047
G1 X131.130 Y100.708 E0.02047
G1 X131.263 Y100.917 E0.00778
G1 X131.481 Y101.258 E0.01269
G1 X131.782 Y101.837 E0.02047
G1 X132.032 Y102.441 E0.02047
G1 X132.228 Y103.063 E0.02047
G1 X132.369 Y103.701 E0.02047
G1 X132.455 Y104.348 E0.02047
G1 X132.483 Y105.000 E0.02047
G1 X132.455 Y105.652 E0.02047
G1 X132.369 Y106.299 E0.02047
G1 X132.228 Y106.937 E0.02047
G1 X132.032 Y107.559 E0.02047
G1 X131.782 Y108.163 E0.02047
G1 X131.481 Y108.742 E0.02047
G1 X131.263 Y109.083 E0.01269
G1 X131.130 Y109.292 E0.00778
G1 X130.732 Y109.810 E0.02047
G1 X130.291 Y110.291 E0.02047
G1 X129.810 Y110.732 E0.02047
G1 X129.292 Y111.130 E0.02047
G1 X128.742 Y111.481 E0.02047
G1 X128.163 Y111.782 E0.02047
G1 X127.559 Y112.032 E0.02047
G1 X126.937 Y112.228 E0.02047
G1 X126.299 Y112.369 E0.02047
G1 X125.652 Y112.455 E0.02047
G1 X125.000 Y112.483 E0.02047
G1 X124.348 Y112.455 E0.02047
G1 X123.701 Y112.369 E0.02047
G1 X123.063 Y112.228 E0.02047
G1 X122.441 Y112.032 E0.02047
G1 X121.837 Y111.782 E0.02047
G1 X121.258 Y111.481 E0.02047
G1 X120.708 Y111.130 E0.02047
G1 X120.190 Y110.732 E0.02047
G1 X119.709 Y110.291 E0.02047
G1 X119.268 Y109.810 E0.02047
G1 X118.870 Y109.292 E0.02047
G1 X118.737 Y109.083 E0.00778
G1 X118.519 Y108.742 E0.01269
G1 X118.218 Y108.163 E0.02047
G1 X117.968 Y107.559 E0.02047
G1 X117.772 Y106.937 E0.02047
G1 X117.631 Y106.299 E0.02047
G1 X117.545 Y105.652 E0.02047
G1 X117.517 Y105.000 E0.02047
G1 X117.545 Y104.348 E0.02047
G1 X117.631 Y103.701 E0.02047
G1 X117.772 Y103.063 E0.02047
G1 X117.968 Y102.441 E0.02047
G1 X118.218 Y101.837 E0.02047
G1 X118.519 Y101.258 E0.02047
G1 X118.870 Y100.708 E0.02047
G1 X119.268 Y100.190 E0.02047
G1 X119.616 Y99.809 E0.01619
G1 X120.044 Y99.866 F10800.000
G1 F8640
G1 X120.190 Y99.268 E-0.18215
G1 X120.708 Y98.870 E-0.15074
G1 X121.258 Y98.519 E-0.15074
G1 X121.837 Y98.218 E-0.15074
G1 X122.340 Y98.010 E-0.12564
G1 E-0.04000 F2100.00000
G1 Z0.800 F10800.000
G1 X118.535 Y107.646
G1 Z0.200
G1 E0.80000 F2100.00000
G1 F1200
G1 X122.023 Y111.135 E0.15546
G1 X122.667 Y111.411 E0.02207
G1 X122.913 Y111.489 E0.00815
G1 X118.511 Y107.087 E0.19620
G1 X118.410 Y106.766 E0.01060
G1 X118.320 Y106.359 E0.01312
G1 X123.641 Y111.680 E0.23713
G1 X124.276 Y111.780 E0.02027
G1 X118.220 Y105.724 E0.26987
G1 X118.184 Y105.152 E0.01807
G1 X124.848 Y111.816 E0.29700
G1 X125.375 Y111.806 E0.01659
G1 X118.194 Y104.625 E0.32002
G1 X118.239 Y104.135 E0.01553
G1 X125.865 Y111.761 E0.33988
G1 X126.328 Y111.687 E0.01475
G1 X118.313 Y103.672 E0.35719
G1 X118.410 Y103.234 E0.01416
G1 X126.766 Y111.590 E0.37241
G1 X127.174 Y111.462 E0.01346
G1 X118.538 Y102.826 E0.38484
G1 X118.684 Y102.436 E0.01313
G1 X127.564 Y111.316 E0.39573
G1 X127.939 Y111.155 E0.01286
G1 X118.845 Y102.061 E0.40526
G1 X119.029 Y101.709 E0.01252
G1 X128.291 Y110.971 E0.41279
G1 X128.627 Y110.771 E0.01232
G1 X119.229 Y101.373 E0.41885
G1 X119.441 Y101.049 E0.01220
G1 X128.951 Y110.559 E0.42387
G1 X129.255 Y110.327 E0.01205
G1 X119.673 Y100.745 E0.42702
G1 X119.919 Y100.455 E0.01198
G1 X129.545 Y110.081 E0.42896
G1 X129.824 Y109.824 E0.01195
G1 X120.176 Y100.176 E0.43001
G1 X120.455 Y99.919 E0.01195
G1 X130.081 Y109.545 E0.42896
G1 X130.327 Y109.255 E0.01198
G1 X120.745 Y99.673 E0.42702
G1 X121.048 Y99.441 E0.01205
G1 X130.559 Y108.952 E0.42387
G1 X130.771 Y108.627 E0.01220
G1 X121.373 Y99.229 E0.41885
G1 X121.709 Y99.029 E0.01232
G1 X130.971 Y108.291 E0.41279
G1 X131.155 Y107.939 E0.01252
G1 X122.061 Y98.845 E0.40526
G1 X122.436 Y98.684 E0.01286
G1 X131.316 Y107.564 E0.39574
G1 X131.462 Y107.174 E0.01313
G1 X122.826 Y98.538 E0.38485
G1 X123.234 Y98.410 E0.01346
G1 X131.590 Y106.766 E0.37241
G1 X131.687 Y106.328 E0.01416
G1 X123.672 Y98.313 E0.35720
G1 X124.135 Y98.239 E0.01475
G1 X131.761 Y105.865 E0.33988
G1 X131.806 Y105.375 E0.01553
G1 X124.625 Y98.194 E0.32003
G1 X125.152 Y98.184 E0.01659
G1 X131.816 Y104.848 E0.29701
G1 X131.780 Y104.276 E0.01807
G1 X125.724 Y98.220 E0.26988
G1 X126.359 Y98.320 E0.02026
G1 X131.680 Y103.641 E0.23714
G1 X131.590 Y103.234 E0.01312
G1 X131.489 Y102.914 E0.01060
G1 X127.086 Y98.511 E0.19621
G1 X127.333 Y98.589 E0.00816
G1 X127.977 Y98.865 E0.02206
G1 X131.465 Y102.354 E0.15548
G1 F8640
G1 X129.138 Y100.026 E-0.76000
G1 E-0.04000 F2100.00000
G1 Z0.800 F10800.000
G1 X130.888 Y101.240
G1 Z0.200
G1 E0.80000 F2100.00000
G1 F1200
G1 X128.760 Y99.112 E0.09485
G1 F8640
G1 X130.888 Y101.240 E-0.69499
G1 E-0.10501 F2100.00000
G1 Z0.800 F10800.000
G1 X119.112 Y108.760
G1 Z0.200
G1 E0.80000 F2100.00000
G1 F1200
G1 X121.240 Y110.888 E0.09482
G1 F8640
G1 X119.112 Y108.760 E-0.69478
G1 E-0.10522 F2100.00000
G1 Z0.800 F10800.000
G1 X124.036 Y89.648
G1 Z0.200
G1 E0.80000 F2100.00000
G1 F1200
G1 X123.766 Y89.612 E0.00854
G1 X123.161 Y89.478 E0.01944
G1 X122.570 Y89.291 E0.01944
G1 X121.997 Y89.054 E0.01944
G1 X121.447 Y88.768 E0.01944
G1 X120.924 Y88.435 E0.01944
G1 X120.433 Y88.058 E0.01944
G1 X119.976 Y87.639 E0.01944
G1 X119.557 Y87.182 E0.01944
G1 X119.179 Y86.690 E0.01944
G1 X118.846 Y86.167 E0.01944
G1 X118.560 Y85.617 E0.01944
G1 X118.323 Y85.045 E0.01944
G1 X118.136 Y84.453 E0.01944
G1 X118.002 Y83.848 E0.01944
G1 X117.921 Y83.234 E0.01944
G1 X117.894 Y82.614 E0.01944
G1 X117.921 Y81.995 E0.01944
G1 X118.002 Y81.380 E0.01944
G1 X118.136 Y80.775 E0.01944
G1 X118.323 Y80.184 E0.01944
G1 X118.560 Y79.611 E0.01944
G1 X118.846 Y79.061 E0.01944
G1 X119.055 Y78.734 E0.01217
G1 X119.179 Y78.539 E0.00726
G1 X119.557 Y78.047 E0.01944
G1 X119.976 Y77.590 E0.01944
G1 X120.433 Y77.171 E0.01944
G1 X120.924 Y76.794 E0.01944
G1 X121.447 Y76.461 E0.01944
G1 X121.997 Y76.174 E0.01944
G1 X122.570 Y75.937 E0.01944
G1 X123.161 Y75.751 E0.01944
G1 X123.766 Y75.617 E0.01944
G1 X124.381 Y75.536 E0.01944
G1 X125.000 Y75.509 E0.01944
G1 X125.619 Y75.536 E0.01944
G1 X126.234 Y75.617 E0.01944
G1 X126.839 Y75.751 E0.01944
G1 X127.430 Y75.937 E0.01944
G1 X128.003 Y76.174 E0.01944
G1 X128.553 Y76.461 E0.01944
G1 X129.076 Y76.794 E0.01944
G1 X129.567 Y77.171 E0.01944
G1 X130.024 Y77.590 E0.01944
G1 X130.443 Y78.047 E0.01944
G1 X130.821 Y78.539 E0.01944
G1 X131.154 Y79.061 E0.01944
G1 X131.440 Y79.611 E0.01944
G1 X131.677 Y80.184 E0.01944
G1 X131.864 Y80.775 E0.01944
G1 X131.998 Y81.380 E0.01944
G1 X132.079 Y81.995 E0.01944
G1 X132.106 Y82.614 E0.01944
G1 X132.079 Y83.234 E0.01944
G1 X131.998 Y83.848 E0.01944
G1 X131.864 Y84.453 E0.01944
G1 X131.677 Y85.045 E0.01944
G1 X131.440 Y85.617 E0.01944
G1 X131.154 Y86.167 E0.01944
G1 X130.821 Y86.690 E0.01944
G1 X130.443 Y87.182 E0.01944
G1 X130.024 Y87.639 E0.01944
G1 X129.567 Y88.058 E0.01944
G1 X129.076 Y88.435 E0.01944
G1 X128.553 Y88.768 E0.01944
G1 X128.003 Y89.054 E0.01944
G1 X127.430 Y89.291 E0.01944
G1 X126.839 Y89.478 E0.01944
G1 X126.234 Y89.612 E0.01944
G1 X125.619 Y89.693 E0.01944
G1 X125.000 Y89.720 E0.01944
G1 X124.381 Y89.693 E0.01944
G1 X124.096 Y89.655 E0.00901
G1 X124.047 Y90.029 F10800.000
G1 F1200
G1 X123.701 Y89.984 E0.01094
G1 X123.063 Y89.842 E0.02047
G1 X122.441 Y89.646 E0.02047
G1 X121.837 Y89.396 E0.02047
G1 X121.258 Y89.095 E0.02047
G1 X120.708 Y88.744 E0.02047
G1 X120.190 Y88.347 E0.02047
G1 X119.709 Y87.906 E0.02047
G1 X119.268 Y87.424 E0.02047
G1 X118.870 Y86.906 E0.02047
G1 X118.519 Y86.356 E0.02047
G1 X118.218 Y85.777 E0.02047
G1 X117.968 Y85.174 E0.02047
G1 X117.772 Y84.551 E0.02047
G1 X117.631 Y83.914 E0.02047
G1 X117.545 Y83.266 E0.02047
G1 X117.517 Y82.614 E0.02047
G1 X117.545 Y81.962 E0.02047
G1 X117.631 Y81.315 E0.02047
G1 X117.772 Y80.678 E0.02047
G1 X117.968 Y80.055 E0.02047
G1 X118.218 Y79.452 E0.02047
G1 X118.519 Y78.873 E0.02047
G1 X118.870 Y78.322 E0.02047
G1 X119.268 Y77.804 E0.02047
G1 X119.709 Y77.323 E0.02047
G1 X120.190 Y76.882 E0.02047
G1 X120.708 Y76.484 E0.02047
G1 X121.258 Y76.134 E0.02047
G1 X121.837 Y75.832 E0.02047
G1 X122.441 Y75.582 E0.02047
G1 X123.063 Y75.386 E0.02047
G1 X123.701 Y75.245 E0.02047
G1 X124.348 Y75.160 E0.02047
G1 X125.000 Y75.131 E0.02047
G1 X125.652 Y75.160 E0.02047
G1 X126.299 Y75.245 E0.02047
G1 X126.937 Y75.386 E0.02047
G1 X127.559 Y75.582 E0.02047
G1 X128.163 Y75.832 E0.02047
G1 X128.742 Y76.134 E0.02047
G1 X129.292 Y76.484 E0.02047
G1 X129.810 Y76.882 E0.02047
G1 X130.291 Y77.323 E0.02047
G1 X130.732 Y77.804 E0.02047
G1 X131.130 Y78.322 E0.02047
G1 X131.481 Y78.873 E0.02047
G1 X131.782 Y79.452 E0.02047
G1 X132.032 Y80.055 E0.02047
G1 X132.228 Y80.678 E0.02047
G1 X132.369 Y81.315 E0.02047
G1 X132.455 Y81.962 E0.02047
G1 X132.483 Y82.614 E0.02047
G1 X132.455 Y83.266 E0.02047
G1 X132.369 Y83.914 E0.02047
G1 X132.228 Y84.551 E0.02047
G1 X132.032 Y85.174 E0.02047
G1 X131.782 Y85.777 E0.02047
G1 X131.481 Y86.356 E0.02047
G1 X131.130 Y86.906 E0.02047
G1 X130.732 Y87.424 E0.02047
G1 X130.291 Y87.906 E0.02047
G1 X129.810 Y88.347 E0.02047
G1 X129.292 Y88.744 E0.02047
G1 X128.742 Y89.095 E0.02047
G1 X128.163 Y89.396 E0.02047
G1 X127.559 Y89.646 E0.02047
G1 X126.937 Y89.842 E0.02047
G1 X126.299 Y89.984 E0.02047
G1 X125.652 Y90.069 E0.02047
G1 X125.000 Y90.097 E0.02047
G1 X124.348 Y90.069 E0.02047
G1 X124.106 Y90.037 E0.00765
G1 X123.907 Y89.710 F10800.000
G1 F8640
G1 X123.701 Y89.984 E-0.09443
G1 X123.063 Y89.842 E-0.15074
G1 X122.441 Y89.646 E-0.15074
G1 X121.837 Y89.396 E-0.15074
G1 X121.258 Y89.095 E-0.15074
G1 X121.030 Y88.949 E-0.06262
G1 E-0.04000 F2100.00000
G1 Z0.800 F10800.000
G1 X121.240 Y88.502
G1 Z0.200
G1 E0.80000 F2100.00000
G1 F1200
G1 X119.112 Y86.374 E0.09482
G1 F8640
G1 X121.240 Y88.502 E-0.69478
G1 E-0.10522 F2100.00000
G1 Z0.800 F10800.000
G1 X118.535 Y85.261
G1 Z0.200
G1 E0.80000 F2100.00000
G1 F1200
G1 X122.023 Y88.749 E0.15546
G1 X122.667 Y89.025 E0.02207
G1 X122.913 Y89.103 E0.00815
G1 X118.511 Y84.701 E0.19620
G1 X118.410 Y84.380 E0.01060
G1 X118.320 Y83.974 E0.01312
G1 X123.641 Y89.295 E0.23713
G1 X124.276 Y89.394 E0.02027
G1 X118.220 Y83.338 E0.26987
G1 X118.184 Y82.766 E0.01807
G1 X124.848 Y89.430 E0.29700
G1 X125.375 Y89.421 E0.01659
G1 X118.194 Y82.240 E0.32002
G1 X118.239 Y81.749 E0.01553
G1 X125.865 Y89.375 E0.33988
G1 X126.328 Y89.302 E0.01475
G1 X118.313 Y81.287 E0.35719
G1 X118.410 Y80.848 E0.01416
G1 X126.766 Y89.204 E0.37241
G1 X127.174 Y89.076 E0.01346
G1 X118.538 Y80.441 E0.38484
G1 X118.684 Y80.050 E0.01313
G1 X127.564 Y88.930 E0.39573
G1 X127.939 Y88.769 E0.01286
G1 X118.845 Y79.676 E0.40526
G1 X119.029 Y79.323 E0.01252
G1 X128.291 Y88.585 E0.41279
G1 X128.627 Y88.385 E0.01232
