; generated by PrusaSlicer 2.0.0 on 2020-04-19 at 20:14:36

; 

; external perimeters extrusion width = 0.45mm
; perimeters extrusion width = 0.45mm
; infill extrusion width = 0.45mm
; solid infill extrusion width = 0.45mm
; top infill extrusion width = 0.40mm
; first layer extrusion width = 0.42mm

M73 P0 R69
M73 Q0 S70
M201 X1000 Y1000 Z1000 E5000 ; sets maximum accelerations, mm/sec^2
M203 X200 Y200 Z12 E120 ; sets maximum feedrates, mm/sec
M204 P1250 R1250 T1250 ; sets acceleration (P, T) and retract acceleration (R), mm/sec^2
M205 X8.00 Y8.00 Z0.40 E1.50 ; sets the jerk limits, mm/sec
M205 S0 T0 ; sets the minimum extruding and travel feed rate, mm/sec
M107
M115 U3.7.1 ; tell printer latest fw version
G90 ; use absolute coordinates
M83 ; extruder relative mode
M104 S215 ; set extruder temp
M140 S60 ; set bed temp
M190 S60 ; wait for bed temp
M109 S215 ; wait for extruder temp
G28 W ; home all without mesh bed level
G80 ; mesh bed leveling
G1 Y-3.0 F1000.0 ; go outside print area
G92 E0.0
G1 X60.0 E9.0 F1000.0 ; intro line
M73 Q0 S69
M73 P0 R69
G1 X100.0 E12.5 F1000.0 ; intro line
G92 E0.0
M221 S95
M900 K30 ; Filament gcode
G21 ; set units to millimeters
G90 ; use absolute coordinates
M83 ; use relative distances for extrusion
;BEFORE_LAYER_CHANGE
G92 E0.0
;0.2


G1 E-0.80000 F2100.00000
G1 Z0.600 F10800.000
;AFTER_LAYER_CHANGE
;0.2
G1 X83.598 Y64.814
G1 Z0.200
G1 E0.80000 F2100.00000
M204 S1000
G1 F1200
G1 X84.910 Y63.520 E0.05779
G1 X86.220 Y62.603 E0.05014
G1 X87.018 Y62.178 E0.02835
G1 X88.771 Y61.530 E0.05859
G1 X90.612 Y61.214 E0.05859
G1 X158.582 Y61.181 E2.13115
G1 X160.360 Y61.337 E0.05595
G1 X162.091 Y61.802 E0.05620
G1 X163.711 Y62.560 E0.05608
G1 X165.233 Y63.640 E0.05850
G1 X166.360 Y64.767 E0.04999
G1 X166.910 Y65.471 E0.02801
G1 X167.821 Y67.015 E0.05619
G1 X168.467 Y68.760 E0.05836
G1 X168.779 Y70.518 E0.05597
G1 X168.818 Y138.648 E2.13618
G1 X168.662 Y140.364 E0.05401
G1 X168.198 Y142.091 E0.05608
G1 X167.443 Y143.705 E0.05585
G1 X166.402 Y145.186 E0.05677
G1 X165.754 Y145.882 E0.02984
G1 X164.526 Y146.913 E0.05025
G1 X162.907 Y147.859 E0.05882
G1 X161.141 Y148.492 E0.05882
G1 X159.562 Y148.770 E0.05025
G1 X158.612 Y148.819 E0.02984
G1 X91.348 Y148.818 E2.10900
G1 X89.636 Y148.662 E0.05390
G1 X87.909 Y148.198 E0.05608
G1 X86.299 Y147.445 E0.05574
G1 X84.814 Y146.402 E0.05688
G1 X84.118 Y145.754 E0.02984
G1 X83.087 Y144.526 E0.05025
G1 X82.141 Y142.907 E0.05882
G1 X81.508 Y141.141 E0.05882
G1 X81.230 Y139.562 E0.05025
G1 X81.181 Y138.612 E0.02984
G1 X81.182 Y71.348 E2.10900
G1 X81.338 Y69.636 E0.05390
G1 X81.802 Y67.909 E0.05608
G1 X82.557 Y66.295 E0.05585
G1 X83.563 Y64.864 E0.05488
G1 F8640
G1 X84.910 Y63.520 E-0.43921
G1 X86.048 Y62.723 E-0.32079
G1 E-0.04000 F2100.00000
G1 Z0.800 F10800.000
G1 X131.168 Y111.168
G1 Z0.200
G1 E0.80000 F2100.00000
G1 F1200
G1 X131.625 Y110.750 E0.01944
G1 X132.117 Y110.372 E0.01944
G1 X132.640 Y110.039 E0.01944
G1 X133.190 Y109.753 E0.01944
G1 X133.763 Y109.516 E0.01944
G1 X134.354 Y109.329 E0.01944
G1 X134.959 Y109.195 E0.01944
G1 X135.574 Y109.114 E0.01944
G1 X136.193 Y109.087 E0.01944
G1 X136.812 Y109.114 E0.01944
G1 X137.427 Y109.195 E0.01944
G1 X138.032 Y109.329 E0.01944
G1 X138.623 Y109.516 E0.01944
G1 X139.196 Y109.753 E0.01944
G1 X139.746 Y110.039 E0.01944
G1 X140.269 Y110.372 E0.01944
G1 X140.760 Y110.750 E0.01944
G1 X141.217 Y111.168 E0.01944
G1 X141.636 Y111.625 E0.01944
G1 X142.014 Y112.117 E0.01944
G1 X142.138 Y112.313 E0.00726
G1 X142.347 Y112.640 E0.01217
G1 X142.633 Y113.190 E0.01944
G1 X142.870 Y113.763 E0.01944
G1 X143.056 Y114.354 E0.01944
G1 X143.191 Y114.959 E0.01944
G1 X143.272 Y115.574 E0.01944
G1 X143.299 Y116.193 E0.01944
G1 X143.272 Y116.812 E0.01944
G1 X143.191 Y117.427 E0.01944
G1 X143.056 Y118.032 E0.01944
G1 X142.870 Y118.623 E0.01944
G1 X142.633 Y119.196 E0.01944
G1 X142.347 Y119.746 E0.01944
G1 X142.138 Y120.073 E0.01217
G1 X142.014 Y120.269 E0.00726
G1 X141.636 Y120.760 E0.01944
G1 X141.217 Y121.217 E0.01944
G1 X140.760 Y121.636 E0.01944
G1 X140.269 Y122.013 E0.01944
G1 X139.746 Y122.347 E0.01944
G1 X139.196 Y122.633 E0.01944
G1 X138.623 Y122.870 E0.01944
G1 X138.032 Y123.056 E0.01944
G1 X137.427 Y123.191 E0.01944
G1 X136.812 Y123.272 E0.01944
G1 X136.193 Y123.299 E0.01944
G1 X135.574 Y123.272 E0.01944
G1 X134.959 Y123.191 E0.01944
G1 X134.354 Y123.056 E0.01944
G1 X133.763 Y122.870 E0.01944
G1 X133.404 Y122.721 E0.01217
G1 X133.190 Y122.633 E0.00726
G1 X132.640 Y122.347 E0.01944
G1 X132.117 Y122.013 E0.01944
G1 X131.625 Y121.636 E0.01944
G1 X131.168 Y121.217 E0.01944
G1 X130.750 Y120.760 E0.01944
G1 X130.372 Y120.269 E0.01944
G1 X130.248 Y120.073 E0.00726
G1 X130.039 Y119.746 E0.01217
G1 X129.753 Y119.196 E0.01944
G1 X129.516 Y118.623 E0.01944
G1 X129.329 Y118.032 E0.01944
G1 X129.195 Y117.427 E0.01944
G1 X129.114 Y116.812 E0.01944
G1 X129.087 Y116.193 E0.01944
G1 X129.114 Y115.574 E0.01944
G1 X129.195 Y114.959 E0.01944
G1 X129.329 Y114.354 E0.01944
G1 X129.516 Y113.763 E0.01944
G1 X129.753 Y113.190 E0.01944
G1 X130.039 Y112.640 E0.01944
G1 X130.372 Y112.117 E0.01944
G1 X130.750 Y111.625 E0.01944
G1 X131.128 Y111.213 E0.01755
G1 X130.850 Y110.958 F10800.000
G1 F1200
G1 X131.383 Y110.460 E0.02286
G1 X131.901 Y110.063 E0.02047
G1 X132.451 Y109.712 E0.02047
G1 X133.030 Y109.411 E0.02047
G1 X133.633 Y109.161 E0.02047
G1 X134.256 Y108.965 E0.02047
G1 X134.893 Y108.823 E0.02047
G1 X135.541 Y108.738 E0.02047
G1 X136.193 Y108.710 E0.02047
G1 X136.845 Y108.738 E0.02047
G1 X137.492 Y108.823 E0.02047
G1 X138.130 Y108.965 E0.02047
G1 X138.752 Y109.161 E0.02047
G1 X139.355 Y109.411 E0.02047
G1 X139.934 Y109.712 E0.02047
G1 X140.485 Y110.063 E0.02047
G1 X141.003 Y110.460 E0.02047
G1 X141.484 Y110.901 E0.02047
G1 X141.925 Y111.383 E0.02047
G1 X142.323 Y111.901 E0.02047
G1 X142.456 Y112.110 E0.00778
G1 X142.673 Y112.451 E0.01269
G1 X142.975 Y113.030 E0.02047
G1 X143.225 Y113.633 E0.02047
G1 X143.421 Y114.256 E0.02047
G1 X143.562 Y114.893 E0.02047
G1 X143.648 Y115.541 E0.02047
G1 X143.676 Y116.193 E0.02047
G1 X143.648 Y116.845 E0.02047
G1 X143.562 Y117.492 E0.02047
G1 X143.421 Y118.130 E0.02047
G1 X143.225 Y118.752 E0.02047
G1 X142.975 Y119.355 E0.02047
G1 X142.673 Y119.934 E0.02047
G1 X142.456 Y120.276 E0.01269
G1 X142.323 Y120.485 E0.00778
G1 X141.925 Y121.003 E0.02047
G1 X141.484 Y121.484 E0.02047
G1 X141.003 Y121.925 E0.02047
G1 X140.485 Y122.323 E0.02047
G1 X139.934 Y122.673 E0.02047
G1 X139.355 Y122.975 E0.02047
G1 X138.752 Y123.225 E0.02047
G1 X138.130 Y123.421 E0.02047
G1 X137.492 Y123.562 E0.02047
G1 X136.845 Y123.648 E0.02047
G1 X136.193 Y123.676 E0.02047
G1 X135.541 Y123.648 E0.02047
G1 X134.893 Y123.562 E0.02047
G1 X134.256 Y123.421 E0.02047
G1 X133.633 Y123.225 E0.02047
G1 X133.030 Y122.975 E0.02047
G1 X132.451 Y122.673 E0.02047
G1 X131.901 Y122.323 E0.02047
G1 X131.383 Y121.925 E0.02047
G1 X130.901 Y121.484 E0.02047
G1 X130.460 Y121.003 E0.02047
G1 X130.063 Y120.485 E0.02047
G1 X129.930 Y120.276 E0.00778
G1 X129.712 Y119.934 E0.01269
G1 X129.411 Y119.355 E0.02047
G1 X129.161 Y118.752 E0.02047
G1 X128.965 Y118.130 E0.02047
G1 X128.823 Y117.492 E0.02047
G1 X128.738 Y116.845 E0.02047
G1 X128.710 Y116.193 E0.02047
G1 X128.738 Y115.541 E0.02047
G1 X128.823 Y114.893 E0.02047
G1 X128.965 Y114.256 E0.02047
G1 X129.161 Y113.633 E0.02047
G1 X129.411 Y113.030 E0.02047
G1 X129.712 Y112.451 E0.02047
G1 X130.063 Y111.901 E0.02047
G1 X130.460 Y111.383 E0.02047
G1 X130.809 Y111.002 E0.01619
G1 X131.237 Y111.059 F10800.000
G1 F8640
G1 X131.383 Y110.460 E-0.18215
G1 X131.901 Y110.063 E-0.15074
G1 X132.451 Y109.712 E-0.15074
G1 X133.030 Y109.411 E-0.15074
G1 X133.533 Y109.203 E-0.12564
G1 E-0.04000 F2100.00000
G1 Z0.800 F10800.000
G1 X129.728 Y118.839
G1 Z0.200
G1 E0.80000 F2100.00000
G1 F1200
G1 X133.216 Y122.328 E0.15546
G1 X133.859 Y122.604 E0.02207
G1 X134.106 Y122.682 E0.00815
G1 X129.704 Y118.280 E0.19620
G1 X129.603 Y117.959 E0.01060
G1 X129.513 Y117.552 E0.01312
G1 X134.833 Y122.873 E0.23713
G1 X135.469 Y122.972 E0.02027
G1 X129.413 Y116.917 E0.26987
G1 X129.377 Y116.345 E0.01807
G1 X136.041 Y123.009 E0.29700
G1 X136.567 Y122.999 E0.01659
G1 X129.387 Y115.818 E0.32002
G1 X129.432 Y115.328 E0.01553
G1 X137.058 Y122.954 E0.33988
G1 X137.520 Y122.880 E0.01475
G1 X129.506 Y114.865 E0.35719
G1 X129.603 Y114.427 E0.01416
G1 X137.959 Y122.783 E0.37241
G1 X138.367 Y122.654 E0.01346
G1 X129.731 Y114.019 E0.38484
G1 X129.877 Y113.629 E0.01313
G1 X138.757 Y122.509 E0.39573
G1 X139.132 Y122.347 E0.01286
G1 X130.038 Y113.254 E0.40526
G1 X130.222 Y112.902 E0.01252
G1 X139.484 Y122.164 E0.41279
G1 X139.820 Y121.964 E0.01232
G1 X130.422 Y112.566 E0.41885
G1 X130.633 Y112.241 E0.01220
G1 X140.144 Y121.752 E0.42387
G1 X140.448 Y121.520 E0.01205
G1 X130.866 Y111.938 E0.42702
G1 X131.112 Y111.648 E0.01198
G1 X140.737 Y121.274 E0.42896
G1 X141.017 Y121.017 E0.01195
G1 X131.368 Y111.369 E0.43001
G1 X131.648 Y111.112 E0.01195
G1 X141.273 Y120.738 E0.42896
G1 X141.520 Y120.448 E0.01198
G1 X131.938 Y110.866 E0.42702
G1 X132.241 Y110.633 E0.01205
G1 X141.752 Y120.144 E0.42387
G1 X141.964 Y119.820 E0.01220
G1 X132.566 Y110.422 E0.41885
G1 X132.902 Y110.222 E0.01232
G1 X142.164 Y119.484 E0.41279
G1 X142.347 Y119.132 E0.01252
G1 X133.254 Y110.038 E0.40526
G1 X133.629 Y109.877 E0.01286
G1 X142.509 Y118.757 E0.39574
G1 X142.654 Y118.367 E0.01313
G1 X134.019 Y109.731 E0.38485
G1 X134.427 Y109.603 E0.01346
G1 X142.783 Y117.959 E0.37241
G1 X142.880 Y117.520 E0.01416
G1 X134.865 Y109.506 E0.35720
G1 X135.327 Y109.432 E0.01475
G1 X142.954 Y117.058 E0.33988
G1 X142.999 Y116.567 E0.01553
G1 X135.818 Y109.387 E0.32003
G1 X136.344 Y109.377 E0.01659
G1 X143.009 Y116.041 E0.29701
G1 X142.973 Y115.469 E0.01807
G1 X136.917 Y109.413 E0.26988
G1 X137.552 Y109.513 E0.02026
G1 X142.873 Y114.834 E0.23714
G1 X142.783 Y114.427 E0.01312
G1 X142.682 Y114.106 E0.01060
G1 X138.279 Y109.704 E0.19621
G1 X138.526 Y109.782 E0.00816
G1 X139.170 Y110.058 E0.02206
G1 X142.658 Y113.547 E0.15548
G1 F8640
G1 X140.331 Y111.219 E-0.76000
G1 E-0.04000 F2100.00000
G1 Z0.800 F10800.000
G1 X142.081 Y112.433
G1 Z0.200
G1 E0.80000 F2100.00000
G1 F1200
G1 X139.952 Y110.305 E0.09485
G1 F8640
G1 X142.081 Y112.433 E-0.69499
G1 E-0.10501 F2100.00000
G1 Z0.800 F10800.000
G1 X130.305 Y119.953
G1 Z0.200
G1 E0.80000 F2100.00000
G1 F1200
G1 X132.433 Y122.080 E0.09482
G1 F8640
G1 X130.305 Y119.953 E-0.69478
G1 E-0.10522 F2100.00000
G1 Z0.800 F10800.000
G1 X135.229 Y100.840
G1 Z0.200
G1 E0.80000 F2100.00000
G1 F1200
G1 X134.959 Y100.805 E0.00854
G1 X134.354 Y100.671 E0.01944
G1 X133.763 Y100.484 E0.01944
G1 X133.190 Y100.247 E0.01944
G1 X132.640 Y99.961 E0.01944
G1 X132.117 Y99.628 E0.01944
G1 X131.625 Y99.250 E0.01944
G1 X131.168 Y98.832 E0.01944
G1 X130.750 Y98.375 E0.01944
G1 X130.372 Y97.883 E0.01944
G1 X130.039 Y97.360 E0.01944
G1 X129.753 Y96.810 E0.01944
G1 X129.516 Y96.237 E0.01944
G1 X129.329 Y95.646 E0.01944
G1 X129.195 Y95.041 E0.01944
G1 X129.114 Y94.426 E0.01944
G1 X129.087 Y93.807 E0.01944
G1 X129.114 Y93.188 E0.01944
G1 X129.195 Y92.573 E0.01944
G1 X129.329 Y91.968 E0.01944
G1 X129.516 Y91.377 E0.01944
G1 X129.753 Y90.804 E0.01944
G1 X130.039 Y90.254 E0.01944
G1 X130.248 Y89.927 E0.01217
G1 X130.372 Y89.731 E0.00726
G1 X130.750 Y89.240 E0.01944
G1 X131.168 Y88.783 E0.01944
G1 X131.625 Y88.364 E0.01944
G1 X132.117 Y87.986 E0.01944
G1 X132.640 Y87.653 E0.01944
G1 X133.190 Y87.367 E0.01944
G1 X133.763 Y87.130 E0.01944
G1 X134.354 Y86.944 E0.01944
G1 X134.959 Y86.809 E0.01944
G1 X135.574 Y86.728 E0.01944
G1 X136.193 Y86.701 E0.01944
G1 X136.812 Y86.728 E0.01944
G1 X137.427 Y86.809 E0.01944
G1 X138.032 Y86.944 E0.01944
G1 X138.623 Y87.130 E0.01944
G1 X139.196 Y87.367 E0.01944
G1 X139.746 Y87.653 E0.01944
G1 X140.269 Y87.986 E0.01944
G1 X140.760 Y88.364 E0.01944
G1 X141.217 Y88.783 E0.01944
G1 X141.636 Y89.240 E0.01944
G1 X142.014 Y89.731 E0.01944
G1 X142.347 Y90.254 E0.01944
G1 X142.633 Y90.804 E0.01944
G1 X142.870 Y91.377 E0.01944
G1 X143.056 Y91.968 E0.01944
G1 X143.191 Y92.573 E0.01944
G1 X143.272 Y93.188 E0.01944
G1 X143.299 Y93.807 E0.01944
G1 X143.272 Y94.426 E0.01944
G1 X143.191 Y95.041 E0.01944
G1 X143.056 Y95.646 E0.01944
G1 X142.870 Y96.237 E0.01944
G1 X142.633 Y96.810 E0.01944
G1 X142.347 Y97.360 E0.01944
G1 X142.014 Y97.883 E0.01944
G1 X141.636 Y98.375 E0.01944
G1 X141.217 Y98.832 E0.01944
G1 X140.760 Y99.250 E0.01944
G1 X140.269 Y99.628 E0.01944
G1 X139.746 Y99.961 E0.01944
G1 X139.196 Y100.247 E0.01944
G1 X138.623 Y100.484 E0.01944
G1 X138.032 Y100.671 E0.01944
G1 X137.427 Y100.805 E0.01944
G1 X136.812 Y100.886 E0.01944
G1 X136.193 Y100.913 E0.01944
G1 X135.574 Y100.886 E0.01944
G1 X135.289 Y100.848 E0.00901
G1 X135.239 Y101.222 F10800.000
G1 F1200
G1 X134.893 Y101.177 E0.01094
G1 X134.256 Y101.035 E0.02047
G1 X133.633 Y100.839 E0.02047
G1 X133.030 Y100.589 E0.02047
G1 X132.451 Y100.288 E0.02047
G1 X131.901 Y99.937 E0.02047
G1 X131.383 Y99.540 E0.02047
G1 X130.901 Y99.099 E0.02047
G1 X130.460 Y98.617 E0.02047
G1 X130.063 Y98.099 E0.02047
G1 X129.712 Y97.549 E0.02047
G1 X129.411 Y96.970 E0.02047
G1 X129.161 Y96.367 E0.02047
G1 X128.965 Y95.744 E0.02047
G1 X128.823 Y95.107 E0.02047
G1 X128.738 Y94.459 E0.02047
G1 X128.710 Y93.807 E0.02047
G1 X128.738 Y93.155 E0.02047
G1 X128.823 Y92.508 E0.02047
G1 X128.965 Y91.870 E0.02047
G1 X129.161 Y91.248 E0.02047
G1 X129.411 Y90.645 E0.02047
G1 X129.712 Y90.066 E0.02047
G1 X130.063 Y89.515 E0.02047
G1 X130.460 Y88.997 E0.02047
G1 X130.901 Y88.516 E0.02047
G1 X131.383 Y88.075 E0.02047
G1 X131.901 Y87.677 E0.02047
G1 X132.451 Y87.327 E0.02047
G1 X133.030 Y87.025 E0.02047
G1 X133.633 Y86.775 E0.02047
G1 X134.256 Y86.579 E0.02047
G1 X134.893 Y86.438 E0.02047
G1 X135.541 Y86.352 E0.02047
G1 X136.193 Y86.324 E0.02047
G1 X136.845 Y86.352 E0.02047
G1 X137.492 Y86.438 E0.02047
G1 X138.130 Y86.579 E0.02047
G1 X138.752 Y86.775 E0.02047
G1 X139.355 Y87.025 E0.02047
G1 X139.934 Y87.327 E0.02047
G1 X140.485 Y87.677 E0.02047
G1 X141.003 Y88.075 E0.02047
G1 X141.484 Y88.516 E0.02047
G1 X141.925 Y88.997 E0.02047
G1 X142.323 Y89.515 E0.02047
G1 X142.673 Y90.066 E0.02047
G1 X142.975 Y90.645 E0.02047
G1 X143.225 Y91.248 E0.02047
G1 X143.421 Y91.870 E0.02047
G1 X143.562 Y92.508 E0.02047
G1 X143.648 Y93.155 E0.02047
G1 X143.676 Y93.807 E0.02047
G1 X143.648 Y94.459 E0.02047
G1 X143.562 Y95.107 E0.02047
G1 X143.421 Y95.744 E0.02047
G1 X143.225 Y96.367 E0.02047
G1 X142.975 Y96.970 E0.02047
G1 X142.673 Y97.549 E0.02047
G1 X142.323 Y98.099 E0.02047
G1 X141.925 Y98.617 E0.02047
G1 X141.484 Y99.099 E0.02047
G1 X141.003 Y99.540 E0.02047
G1 X140.485 Y99.937 E0.02047
G1 X139.934 Y100.288 E0.02047
G1 X139.355 Y100.589 E0.02047
G1 X138.752 Y100.839 E0.02047
G1 X138.130 Y101.035 E0.02047
G1 X137.492 Y101.177 E0.02047
G1 X136.845 Y101.262 E0.02047
G1 X136.193 Y101.290 E0.02047
G1 X135.541 Y101.262 E0.02047
G1 X135.299 Y101.230 E0.00765
G1 X135.100 Y100.902 F10800.000
G1 F8640
G1 X134.893 Y101.177 E-0.09443
G1 X134.256 Y101.035 E-0.15074
G1 X133.633 Y100.839 E-0.15074
G1 X133.030 Y100.589 E-0.15074
G1 X132.451 Y100.288 E-0.15074
G1 X132.223 Y100.142 E-0.06262
G1 E-0.04000 F2100.00000
G1 Z0.800 F10800.000
G1 X132.433 Y99.695
G1 Z0.200
G1 E0.80000 F2100.00000
G1 F1200
G1 X130.305 Y97.567 E0.09482
G1 F8640
G1 X132.433 Y99.695 E-0.69478
G1 E-0.10522 F2100.00000
G1 Z0.800 F10800.000
G1 X129.728 Y96.454
G1 Z0.200
G1 E0.80000 F2100.00000
G1 F1200
G1 X133.216 Y99.942 E0.15546
G1 X133.859 Y100.218 E0.02207
G1 X134.106 Y100.296 E0.00815
G1 X129.704 Y95.894 E0.19620
G1 X129.603 Y95.573 E0.01060
G1 X129.513 Y95.167 E0.01312
G1 X134.833 Y100.487 E0.23713
G1 X135.469 Y100.587 E0.02027
G1 X129.413 Y94.531 E0.26987
G1 X129.377 Y93.959 E0.01807
G1 X136.041 Y100.623 E0.29700
G1 X136.567 Y100.613 E0.01659
G1 X129.387 Y93.433 E0.32002
G1 X129.432 Y92.942 E0.01553
G1 X137.058 Y100.568 E0.33988
G1 X137.520 Y100.494 E0.01475
G1 X129.506 Y92.480 E0.35719
G1 X129.603 Y92.041 E0.01416
G1 X137.959 Y100.397 E0.37241
G1 X138.367 Y100.269 E0.01346
G1 X129.731 Y91.633 E0.38484
G1 X129.877 Y91.243 E0.01313
G1 X138.757 Y100.123 E0.39573
G1 X139.132 Y99.962 E0.01286
G1 X130.038 Y90.868 E0.40526
M73 Q1 S68
